packages/icons/src/components/Icon/assets/default-outline/video.svg

<svg width="20" height="20" viewBox="0 0 20 20" fill="none" xmlns="http://www.w3.org/2000/svg">
<path d="M12.0381 6.65356C12.038 6.14387 11.625 5.73071 11.1152 5.73071H4.42285C3.91323 5.73083 3.50012 6.14394 3.5 6.65356V13.3459C3.5 13.8557 3.91315 14.2687 4.42285 14.2688H11.1152C11.625 14.2688 12.0381 13.8557 12.0381 13.3459V6.65356ZM13.5381 9.19556V10.8049L16.5 13.7668V6.23364L13.5381 9.19556ZM13.5381 7.07349L15.7676 4.84497C16.5914 4.02117 18 4.60475 18 5.76978V14.2307C17.9998 15.3955 16.5913 15.979 15.7676 15.1555L13.5381 12.926V13.3459C13.5381 14.6842 12.4535 15.7688 11.1152 15.7688H4.42285C3.08473 15.7687 2 14.6841 2 13.3459V6.65356C2.00012 5.31552 3.0848 4.23083 4.42285 4.23071H11.1152C12.4534 4.23071 13.538 5.31544 13.5381 6.65356V7.07349Z" fill="#727683"/>
</svg>

<svg xmlns="http://www.w3.org/2000/svg" width="20" height="20" fill="none" viewBox="0 0 20 20">
    <path fill="#727683" d="M12.038 6.654a.923.923 0 0 0-.923-.923H4.423a.923.923 0 0 0-.923.923v6.692c0 .51.413.923.923.923h6.692c.51 0 .923-.413.923-.923zm1.5 2.542v1.609l2.962 2.962V6.234zm0-2.123 2.23-2.228C16.59 4.021 18 4.605 18 5.77v8.46c0 1.165-1.409 1.749-2.232.925l-2.23-2.229v.42a2.423 2.423 0 0 1-2.423 2.423H4.423A2.423 2.423 0 0 1 2 13.346V6.654A2.423 2.423 0 0 1 4.423 4.23h6.692a2.423 2.423 0 0 1 2.423 2.423z"/>
</svg>
